X: 40881
T: Tribute To Peadar O'Donnell
R: jig
M: 6/8
K: Adorian
|:E2B AGE-|EBA Bd2|BA2 GEA|GE2 DEG|
E2B AGE-|EBA Bd2|ed2BAG|AGE DEG:|
|:A2e ede|g2e d2B|A2e ede|gag edB|
A2e ede|g2e d2B|ege -e2d|eg2 edB:|
|:A2c BAG|ADE G3|A2c BAG|AdB BAG|
A2c BAG|ADE G2A|cBB GAA|cBG ABA:|

